X: 1
T: Holly Green Waltz, The
M:6/8
R: Waltz
L:1/8
Z: Mackin 
K: G
d |: "G" d4 B2 | B3AG2 | "D" A3GA2 | "G" B3GE2 | "G" D3GG2 | G3Bd2 | "Em" e3dB2 | "D" A4 d2 |
"G" d3BB2 | B3AG2 | "D" A3GA2 | "G" B3GE2 | "G" D3GG2 | G3AB2 | "D" A3GF2 | "G" G6 :|
|: "G" G3Bd2 | g4 d2 | "Am" e3dc2 |"G" B3AG2 | "G" G3Bd2 | g4 d2 | "Em" e3dB2 | "D" A6 |
"G" G3Bd2 | g4 d2 | "Am" e3dc2 | "Bm" B3cd2 | "C" e3ge2 | "Bm" d3BG2 |[1 "D" A3GF2 |"G" G6 :| [2 A3GF2 | G4 d2 || 
